static/images/platforms-ppc/billboard-divider.svg

<svg width="783" height="171" viewBox="0 0 783 171" fill="none" xmlns="http://www.w3.org/2000/svg">
<path d="M295.81 95.7841C295.744 99.5584 296.037 102.53 295.996 107.13C295.954 111.73 295.799 112.419 295.834 117.688C295.869 122.956 295.762 128.227 295.826 130.573C295.89 132.919 295.696 133.166 295.739 136.498C295.782 139.829 295.757 141.847 295.694 144.761C295.631 147.674 295.578 156.624 295.655 159.879C295.732 163.133 295.598 166.846 295.566 169.078C295.556 169.773 295.543 170.321 295.529 170.74C295.523 170.918 295.51 171 295.498 171C295.498 171 295.498 171 295.498 171C295.482 171 295.467 170.873 295.465 170.644C295.456 169.535 295.431 167.878 295.375 165.921C295.271 162.271 295.386 161.872 295.333 156.943C295.279 152.014 295.172 149.053 295.241 143.253C295.31 137.454 295.021 136.122 295.185 127.935C295.349 119.749 295.046 118.887 295.006 110.729C294.966 102.572 295.133 92.2737 295.119 87.356C295.105 82.4383 295.07 75.8334 295.11 68.862C295.15 61.8904 295.049 53.2844 295.12 45.589C295.192 37.8937 295.282 27.0141 295.342 21.9878C295.402 16.9618 295.416 15.7368 295.379 10.899C295.358 8.11814 295.378 4.28729 295.456 1.05147C295.495 -0.577008 295.549 -0.207995 295.575 1.43112C295.614 3.82804 295.588 5.79565 295.656 7.03068C295.793 9.49852 295.845 10.5474 295.766 13.6629C295.686 16.7782 295.866 18.2461 295.846 20.0622C295.825 21.8783 295.719 21.8484 295.801 31.0826C295.883 40.3168 295.903 45.3791 295.923 48.876C295.943 52.373 295.85 59.6749 295.884 65.374C295.917 71.0732 295.887 82.6594 295.941 87.3299C295.996 92.0003 295.877 92.0099 295.81 95.7841Z" fill="black"/>
<path d="M438.59 84.1899C455.873 84.2563 469.478 83.9625 490.542 84.004C511.607 84.0455 514.762 84.2014 538.886 84.1663C563.009 84.1313 587.146 84.2379 597.888 84.1739C608.629 84.1098 609.762 84.3035 625.015 84.2605C640.268 84.2174 649.512 84.2427 662.851 84.3057C676.192 84.3686 717.175 84.4224 732.077 84.345C746.98 84.2677 763.977 84.4019 774.199 84.4337C777.383 84.4436 779.889 84.4572 781.81 84.4713C782.624 84.4773 783 84.4898 783 84.5022C783 84.5022 783 84.5022 783 84.5022C783 84.5176 782.417 84.5327 781.371 84.5347C776.294 84.5441 768.706 84.569 759.742 84.6248C743.029 84.7289 741.202 84.6139 718.633 84.6674C696.064 84.7208 682.504 84.8277 655.948 84.7586C629.393 84.6895 623.294 84.9788 585.809 84.8148C548.324 84.6509 544.379 84.9534 507.024 84.9937C469.67 85.0339 422.516 84.867 399.999 84.8808C377.481 84.8947 347.237 84.9299 315.315 84.89C283.393 84.8501 243.986 84.9509 208.749 84.8796C173.513 84.8084 123.696 84.7184 100.681 84.6581C77.6673 84.5979 72.0578 84.5843 49.9058 84.6211C37.1725 84.6423 19.6313 84.6223 4.81461 84.5444C-2.64209 84.5053 -0.952398 84.4507 6.55302 84.4246C17.5284 84.3864 26.538 84.4119 32.1931 84.3437C43.4932 84.2074 48.2959 84.1551 62.5615 84.2344C76.8264 84.3138 83.548 84.1335 91.8636 84.1542C100.18 84.175 100.043 84.2813 142.325 84.1994C184.609 84.1175 207.788 84.0966 223.801 84.0769C239.813 84.0572 273.248 84.1495 299.344 84.1162C325.44 84.0829 378.493 84.1134 399.879 84.0589C421.264 84.0043 421.309 84.1234 438.59 84.1899Z" fill="black"/>
<path d="M543.81 96.2239C543.744 99.9762 544.037 102.93 543.996 107.503C543.954 112.077 543.799 112.762 543.834 118C543.869 123.237 543.762 128.478 543.826 130.81C543.89 133.142 543.696 133.388 543.739 136.699C543.782 140.011 543.757 142.018 543.694 144.914C543.631 147.81 543.578 156.708 543.655 159.944C543.732 163.18 543.598 166.87 543.566 169.089C543.556 169.78 543.543 170.325 543.529 170.742C543.523 170.918 543.51 171 543.498 171C543.498 171 543.498 171 543.498 171C543.482 171 543.467 170.873 543.465 170.646C543.456 169.544 543.431 167.897 543.375 165.95C543.271 162.322 543.386 161.925 543.333 157.025C543.279 152.125 543.172 149.181 543.241 143.415C543.31 137.65 543.021 136.326 543.185 128.187C543.349 120.049 543.046 119.192 543.006 111.082C542.966 102.972 543.133 92.7341 543.119 87.8452C543.105 82.9562 543.07 76.39 543.11 69.4593C543.15 62.5285 543.049 53.9728 543.12 46.3224C543.192 38.672 543.282 27.8561 543.342 22.8593C543.402 17.8626 543.416 16.6447 543.379 11.8352C543.358 9.07067 543.378 5.26222 543.456 2.04532C543.495 0.426366 543.549 0.793221 543.575 2.42275C543.614 4.80565 543.588 6.76176 543.656 7.98956C543.793 10.443 543.845 11.4857 543.766 14.583C543.686 17.6801 543.866 19.1394 543.846 20.9449C543.825 22.7503 543.719 22.7206 543.801 31.9008C543.883 41.0811 543.903 46.1137 543.923 49.5902C543.943 53.0667 543.85 60.3259 543.884 65.9917C543.917 71.6575 543.887 83.176 543.941 87.8192C543.996 92.4623 543.877 92.4719 543.81 96.2239Z" fill="black"/>
</svg>

<svg xmlns="http://www.w3.org/2000/svg" width="783" height="171" fill="none" viewBox="0 0 783 171"><path fill="#000" d="M295.81 95.784c-.066 3.774.227 6.746.186 11.346s-.197 5.289-.162 10.558c.035 5.268-.072 10.539-.008 12.885s-.13 2.593-.087 5.925.018 5.349-.045 8.263-.116 11.863-.039 15.118c.077 3.254-.057 6.967-.089 9.199-.01.695-.023 1.243-.037 1.662-.006.178-.019.26-.031.26-.016 0-.031-.127-.033-.356a237 237 0 0 0-.09-4.723c-.104-3.65.011-4.049-.042-8.978s-.161-7.89-.092-13.69-.22-7.131-.056-15.318-.139-9.048-.179-17.206.127-18.455.113-23.373-.049-11.523-.009-18.494c.04-6.972-.061-15.578.01-23.273.072-7.695.162-18.575.222-23.601s.074-6.251.037-11.089c-.021-2.78-.001-6.612.077-9.848.039-1.628.093-1.259.119.38.039 2.397.013 4.365.081 5.6.137 2.468.189 3.516.11 6.632-.08 3.115.1 4.583.08 6.4-.021 1.815-.127 1.785-.045 11.02s.102 14.296.122 17.793-.073 10.799-.039 16.498.003 17.285.057 21.956c.055 4.67-.064 4.68-.131 8.454"/><path fill="#000" d="M438.59 84.19c17.283.066 30.888-.227 51.952-.186 21.065.041 24.22.197 48.344.162 24.123-.035 48.26.072 59.002.008 10.741-.064 11.874.13 27.127.086a4396 4396 0 0 1 37.836.046c13.341.063 54.324.116 69.226.039s31.9.057 42.122.089c3.184.01 5.69.023 7.611.037.814.006 1.19.019 1.19.031 0 .016-.583.03-1.629.033-5.077.01-12.665.034-21.629.09-16.713.104-18.54-.011-41.109.042s-36.129.16-62.685.092c-26.555-.07-32.654.22-70.139.056s-41.43.138-78.785.179-84.508-.127-107.025-.113-52.762.049-84.684.009-71.329.06-106.566-.01c-35.236-.072-85.053-.162-108.068-.222-23.014-.06-28.623-.074-50.775-.037-12.733.021-30.275.001-45.091-.077-7.457-.039-5.767-.093 1.738-.12 10.975-.038 19.985-.012 25.64-.08 11.3-.137 16.103-.189 30.369-.11 14.264.08 20.986-.1 29.302-.08s8.179.127 50.461.045c42.284-.081 65.463-.102 81.476-.122 16.012-.02 49.447.073 75.543.04 26.096-.034 79.149-.004 100.535-.058s21.43.064 38.711.13"/><path fill="#000" d="M543.81 96.224c-.066 3.752.227 6.706.186 11.279-.042 4.574-.197 5.259-.162 10.497s-.072 10.478-.008 12.81-.13 2.578-.087 5.889.018 5.319-.045 8.215-.116 11.794-.039 15.03-.057 6.926-.089 9.145c-.01.691-.023 1.236-.037 1.653-.006.176-.019.258-.031.258-.016 0-.031-.127-.033-.354a234 234 0 0 0-.09-4.696c-.104-3.628.011-4.025-.042-8.925s-.161-7.844-.092-13.61-.22-7.089-.056-15.228-.139-8.995-.179-17.105.127-18.348.113-23.237-.049-11.455-.009-18.386-.061-15.486.01-23.137c.072-7.65.162-18.466.222-23.463s.074-6.214.037-11.024a334 334 0 0 1 .077-9.79c.039-1.619.093-1.252.119.378.039 2.383.013 4.339.081 5.567.137 2.453.189 3.496.11 6.593-.08 3.097.1 4.556.08 6.362-.021 1.805-.127 1.776-.045 10.956s.102 14.213.122 17.69c.02 3.476-.073 10.735-.039 16.4.033 5.666.003 17.185.057 21.828.055 4.643-.064 4.653-.131 8.405"/></svg>
